static/fa/svgs/solid/square-virus.svg

<svg xmlns="http://www.w3.org/2000/svg" viewBox="0 0 448 512"><!--! Font Awesome Free 6.1.1 by @fontawesome - https://fontawesome.com License - https://fontawesome.com/license/free (Icons: CC BY 4.0, Fonts: SIL OFL 1.1, Code: MIT License) Copyright 2022 Fonticons, Inc.--><path d="M160 224c0-17.7 14.3-32 32-32s32 14.3 32 32-14.3 32-32 32-32-14.3-32-32zm120 64c0 13.3-10.7 24-24 24s-24-10.7-24-24 10.7-24 24-24 24 10.7 24 24zM384 32c35.3 0 64 28.65 64 64v320c0 35.3-28.7 64-64 64H64c-35.35 0-64-28.7-64-64V96c0-35.35 28.65-64 64-64h320zm-184.2 85.7c0 29.2-35.3 43.9-56 23.2-9.4-9.4-24.6-9.4-34 0-9.3 9.3-9.3 24.5 0 33.9 20.7 20.7 6.1 56.1-23.19 56.1-13.26 0-24 10.7-24 24 0 13.2 10.74 24 24 24 29.29 0 43.89 35.4 23.19 56-9.3 9.4-9.3 24.6 0 34 9.4 9.4 24.6 9.4 34 0 20.7-20.7 56-6 56 23.2 0 13.3 10.8 24 24 24 13.3 0 24-10.7 24-24 0-29.2 35.4-43.9 56.1-23.2 9.4 9.4 24.6 9.4 33.9 0 9.4-9.4 9.4-24.6 0-34-20.6-20.6-6-56 23.3-56 13.2 0 24-10.8 24-24 0-13.3-10.8-24-24-24-29.3 0-43.9-35.4-23.3-56.1 9.4-9.4 9.4-24.6 0-33.9-9.3-9.4-24.5-9.4-33.9 0-20.7 20.7-56.1 6-56.1-23.2 0-13.3-10.7-24.05-24-24.05-13.2 0-24 10.75-24 24.05z"/></svg>

<svg xmlns="http://www.w3.org/2000/svg" viewBox="0 0 448 512"><!--! Font Awesome Free 6.1.1 by @fontawesome - https://fontawesome.com License - https://fontawesome.com/license/free (Icons: CC BY 4.0, Fonts: SIL OFL 1.1, Code: MIT License) Copyright 2022 Fonticons, Inc. --><path d="M160 224C160 206.3 174.3 192 192 192C209.7 192 224 206.3 224 224C224 241.7 209.7 256 192 256C174.3 256 160 241.7 160 224zM280 288C280 301.3 269.3 312 256 312C242.7 312 232 301.3 232 288C232 274.7 242.7 264 256 264C269.3 264 280 274.7 280 288zM384 32C419.3 32 448 60.65 448 96V416C448 451.3 419.3 480 384 480H64C28.65 480 0 451.3 0 416V96C0 60.65 28.65 32 64 32H384zM199.8 117.7C199.8 146.9 164.5 161.6 143.8 140.9C134.4 131.5 119.2 131.5 109.8 140.9C100.5 150.2 100.5 165.4 109.8 174.8C130.5 195.5 115.9 230.9 86.61 230.9C73.35 230.9 62.61 241.6 62.61 254.9C62.61 268.1 73.35 278.9 86.61 278.9C115.9 278.9 130.5 314.3 109.8 334.9C100.5 344.3 100.5 359.5 109.8 368.9C119.2 378.3 134.4 378.3 143.8 368.9C164.5 348.2 199.8 362.9 199.8 392.1C199.8 405.4 210.6 416.1 223.8 416.1C237.1 416.1 247.8 405.4 247.8 392.1C247.8 362.9 283.2 348.2 303.9 368.9C313.3 378.3 328.5 378.3 337.8 368.9C347.2 359.5 347.2 344.3 337.8 334.9C317.2 314.3 331.8 278.9 361.1 278.9C374.3 278.9 385.1 268.1 385.1 254.9C385.1 241.6 374.3 230.9 361.1 230.9C331.8 230.9 317.2 195.5 337.8 174.8C347.2 165.4 347.2 150.2 337.8 140.9C328.5 131.5 313.3 131.5 303.9 140.9C283.2 161.6 247.8 146.9 247.8 117.7C247.8 104.4 237.1 93.65 223.8 93.65C210.6 93.65 199.8 104.4 199.8 117.7H199.8z"/></svg>
